optimized/20/solid/credit-card.svg

<svg xmlns="http://www.w3.org/2000/svg" viewBox="0 0 20 20">
  <path fill-rule="evenodd" d="M2.5 4C1.67157 4 1 4.67157 1 5.5V6H19V5.5C19 4.67157 18.3284 4 17.5 4H2.5ZM19 8.5H1V14.5C1 15.3284 1.67157 16 2.5 16H17.5C18.3284 16 19 15.3284 19 14.5V8.5ZM3 13.25C3 12.8358 3.33579 12.5 3.75 12.5H5.25C5.66421 12.5 6 12.8358 6 13.25C6 13.6642 5.66421 14 5.25 14H3.75C3.33579 14 3 13.6642 3 13.25ZM7.75 12.5C7.33579 12.5 7 12.8358 7 13.25C7 13.6642 7.33579 14 7.75 14H11.25C11.6642 14 12 13.6642 12 13.25C12 12.8358 11.6642 12.5 11.25 12.5H7.75Z" clip-rule="evenodd"/>
</svg>

<svg xmlns="http://www.w3.org/2000/svg" viewBox="0 0 20 20" fill="currentColor" aria-hidden="true">
  <path fill-rule="evenodd" d="M2.5 4A1.5 1.5 0 001 5.5V6h18v-.5A1.5 1.5 0 0017.5 4h-15zM19 8.5H1v6A1.5 1.5 0 002.5 16h15a1.5 1.5 0 001.5-1.5v-6zM3 13.25a.75.75 0 01.75-.75h1.5a.75.75 0 010 1.5h-1.5a.75.75 0 01-.75-.75zm4.75-.75a.75.75 0 000 1.5h3.5a.75.75 0 000-1.5h-3.5z" clip-rule="evenodd"/>
</svg>
